X: 10350
T: Don't Shoot The Flautist
R: jig
M: 6/8
K: Dmixolydian
|:DEG ~A3|BAG A3|DEG ~A3|ABA GED|
DEG ~A3|BAG A2G|ABc ded|cBA GED:|
|:d2G GAB|AGB AGE|d2G GAB|AGE A2B|
d2G GAB|AGE ABc|ded cBA|GBA GED:|

